X: 1
T: Catherine Miller's Jig
C: by Terry Traub, April 20 2015
R: Jig
M: 6/8
K: G
L: 1/8
|: D |\
"G"GDG BGB | "G"dBG GBd | "Am"cAE EAc | "C"BGB "D"AFD |\
"G"GDG BGB | "G"dBG GBd | "Am"cAE EAc | "D"BGF "G"G2 :|
B |\
"G"def geg | "D"fdf "C"ece | "G"dBG GBd | "C"cAG "D"FDd |\
"G"def geg | "Bm"fdf "C"ece | "G"dBG GBd | "D"cAF "G"G2 ||]
B |\
"G"def "Em"geg | "Bm"fdf "C"ece | "G"dBG "Em"GBd | "C"cAG "D"FDF |\
"G"GDG BGB | "G"dBG GBd | "Am"cAE EAc | "D"BGF "G"G2 |]
